src/status/24/notification-disabled-30-symbolic.svg

<?xml version="1.0" encoding="UTF-8" standalone="no"?>
<svg
   xmlns:dc="http://purl.org/dc/elements/1.1/"
   xmlns:cc="http://creativecommons.org/ns#"
   xmlns:rdf="http://www.w3.org/1999/02/22-rdf-syntax-ns#"
   xmlns:svg="http://www.w3.org/2000/svg"
   xmlns="http://www.w3.org/2000/svg"
   height="24"
   width="24"
   version="1.1"
   id="svg6">
  <metadata
     id="metadata12">
    <rdf:RDF>
      <cc:Work
         rdf:about="">
        <dc:format>image/svg+xml</dc:format>
        <dc:type
           rdf:resource="http://purl.org/dc/dcmitype/StillImage" />
        <dc:title />
      </cc:Work>
    </rdf:RDF>
  </metadata>
  <defs
     id="defs10" />
  <path
     style="color:#bebebe;overflow:visible;isolation:auto;mix-blend-mode:normal;fill:#363636;marker:none;opacity:1"
     d="M 6.3515625 4.7363281 L 6.3515625 4.7382812 L 5.4121094 5.6777344 L 9.4746094 9.7402344 L 8.1738281 9.7402344 L 8.0332031 9.5996094 C 8.0198271 9.732866 8.0001481 9.8650714 8 10 C 8 10 7.9998436 15.000094 6.3398438 15.621094 C 6.3238437 15.632094 6.3177812 15.652062 6.3007812 15.664062 C 6.2374003 15.713292 6.1826211 15.772693 6.1386719 15.839844 C 6.1206719 15.866844 6.0999375 15.888016 6.0859375 15.916016 C 6.0313172 16.018995 6.0018673 16.133447 6 16.25 C 6 16.363636 6.335 17 6.75 17 L 17.25 17 C 17.363636 17 18 16.363636 18 16.25 C 17.9981 16.133447 17.968682 16.018995 17.914062 15.916016 C 17.900063 15.888016 17.878328 15.865844 17.861328 15.839844 C 17.817398 15.772684 17.762608 15.713282 17.699219 15.664062 C 17.683219 15.652063 17.677156 15.632094 17.660156 15.621094 C 16.000146 15.001094 16 10 16 10 C 15.998 8.177 14.765 6.4647656 13 6.0097656 L 13 6 C 13 5.4477153 12.552285 5 12 5 C 11.447715 5 11 5.4477153 11 6 L 11 6.0097656 C 10.181169 6.2214318 9.4836645 6.70863 8.9648438 7.3476562 L 6.3535156 4.7363281 L 6.3515625 4.7363281 z M 10.066406 18 C 10.294135 18.881993 11.089083 19.49868 12 19.5 C 12.911645 19.499569 13.707636 18.882696 13.935547 18 L 10.066406 18 z "
     id="path2-6" />
</svg>

<svg xmlns="http://www.w3.org/2000/svg" width="24" height="24">
    <path d="M6.352 4.736v.002l-.94.94L9.475 9.74H8.174l-.14-.14C8.02 9.733 8 9.865 8 10c0 0 0 5-1.66 5.621-.016.011-.022.031-.04.043a.726.726 0 0 0-.161.176c-.018.027-.04.048-.053.076A.738.738 0 0 0 6 16.25c0 .114.335.75.75.75h10.5c.114 0 .75-.636.75-.75a.738.738 0 0 0-.086-.334c-.014-.028-.036-.05-.053-.076a.725.725 0 0 0-.162-.176c-.016-.012-.022-.032-.039-.043C16 15.001 16 10 16 10c-.002-1.823-1.235-3.535-3-3.99V6a1 1 0 1 0-2 0v.01c-.819.211-1.516.699-2.035 1.338L6.354 4.736h-.002zM10.066 18A2 2 0 0 0 12 19.5a2 2 0 0 0 1.936-1.5h-3.87z" style="color:#bebebe;overflow:visible;isolation:auto;mix-blend-mode:normal;fill:#050505;marker:none;opacity:.7"/>
</svg>
